X: 56
T: No_60_Song_of_Rabbit_Dance_(a).krn
N: Derived from No_60_Song_of_Rabbit_Dance_(a).krn
%%abc-version 2.0
%%abcx-abcm2ps-target-version 5.9.1 (29 Sep 2008)
%%abc-creator hum2abc beta
%%abcx-conversion-date 2019/03/15 08:27:55
%%humdrum-veritas 1278244961
%%humdrum-veritas-data 2015391973
%%linebreak <none>
%%barnumbers 0
L: 1/8
M: 2/4
%%staves {1 2}
V: 1 clef=bass
V: 2 clef=bass
K: G
[V:1] [K:clef=bass][M:2/4]z2(3G,G,G, | 
[V:2] [K:clef=bass][M:2/4]G,,G,, G,,G,, | 
[V:1] E4 | 
[V:2] G,,G,, G,,G,, | 
[V:1] (3:2:7EB,B, B,EB,/ z/ | 
[V:2] z4 | 
[V:1] (3B,A,G, E,3/E,/ | 
[V:2] z4 | 
[V:1] [M:3/4]E,2z2E,3/E,/ | 
[V:2] [M:3/4]z6 | 
[V:1] [M:2/4]E4 ]|:  
[V:2] [M:2/4]z4 ]|:  
[V:1] (3:2:7EB,B, B,EB,/ z/ | 
[V:2] z4 | 
[V:1] (3B,A,G, E,3/E,/ | 
[V:2] z4 | 
[V:1] [M:3/4]E,3z E,3/E,/ | 
[V:2] [M:3/4]z6 | 
[V:1] [M:2/4]^G,4 | 
[V:2] [M:2/4]z4 | 
[V:1] ^G,/F,3/ E,/F,3/ | 
[V:2] z4 | 
[V:1] ^G,3/F,/ E,3/E,/ | 
[V:2] z4 | 
[V:1] E,3z | 
[V:2] z4 | 
[V:1] F,/E,3/E,2 | 
[V:2] z4 | 
[V:1] F,/E,3/E,2 | 
[V:2] z4 | 
[V:1] E,/E,3/z2 :|]  
[V:2] z4 :|]  
[V:1] E,2z2 |]  
[V:2] z4 |]  



